X:1
T:Miss Farquharson of Invercauld
T:Miss Farquharson of Invercauld
T:William Marshall
C:William Marshall
%%score { ( 1 2 ) 3 }
L:1/8
M:4/4
K:F
V:1 treble 
V:2 treble 
V:3 bass 
V:1
 F | [A,C]<F F>G [CA]>G A>F | D<G GA B2 A>c | d>f c<f A>F G<A | C>F E>G F2 FF | %5
 [A,C]<F F>G [CA]>G [CA]>F | D<G GA B2 A>c | d>f c<f A>F G<A | C>F E>G F2 F |] (e | %10
 f>)c f<a f>c fa | f>c f<a g2 (ga) | f<c c>A f>b a<g | f<d c>A G2 (G>g) | f>c c<a fcc(a | %15
 f)cfa g2 (ga) | f>c c<G f>ba>g | f<dc>A G2 G |] %18
V:2
 x | x8 | x8 | F4 C2 C2 | C2 B,2 A,2 A,2 | x8 | x8 | F4 C2 C2 | A,2 B,2 A,2 A, |] x | x8 | x8 | %12
 x8 | x8 | x8 | x8 | x8 | x7 |] %18
V:3
 z | [F,,F,]2 [F,,F,]2 [F,,F,]2 [F,,F,]2 | [B,,B,]2 [B,,B,][A,,A,] [G,,G,]2 [F,,F,]2 | %3
 [B,,B,]2 [A,,A,]2 [F,,F,]2 [F,,F,]2 | [C,,C,]2 [C,,C,]2 [F,,F,]2 [F,,F,]2 | %5
 [F,,F,]2 [F,,F,]2 [F,,F,]2 [F,,F,]2 | [B,,B,]2 [B,,B,][A,,A,] [G,,G,]2 [F,,F,]2 | %7
 [B,,B,]2 [A,,A,]2 [F,,F,]2 [F,,F,]2 | [C,,C,]2 [C,,C,]2 [F,,F,]2 [F,,F,] |] z | %10
 [F,A,C]2 [F,A,C]2 [F,A,C]2 [F,A,C]2 | [F,A,C]2 [F,A,C]2 [C,C]2 [C,C]2 | %12
 [F,A,C]2 [F,A,C]2 [D,D]2 [B,,B,]2 | [F,,F,]2 [F,,F,]2 [C,,C,]2 [C,,C,]2 | %14
 [F,A,C]2 [F,A,C]2 [F,A,C]2 [F,A,C]2 | [F,A,C]2 [F,A,C]2 [C,C]2 [C,C]2 | %16
 [F,A,C]2 [F,A,C]2 [D,D]2 [B,,B,]2 | [F,,F,]2 [F,,F,]2 [C,,C,]2 [C,,C,] |] %18

